X:1
T:Tarantella part 4
T:Tarantella part 4
T:Nigganuts
Z:Nigganuts
L:1/8
M:6/8
K:Eb
V:1 treble transpose=-14 nm="Tenor Saxophone" snm="T. Sax."
V:1
[K:F] D z z D z z | D z z D z z | DAF DAF | DAF D z2 | _D z z D z z | _D z z D z z | _D_AF DAF | %7
 _D_AF D z2 | _A z z A z z | _E z z C z z | _E z z E z z | _E z z EEE | C z z _E z z | %13
 C z z _E z z | G z z B,3 | _E3 ED_D | C z z C z z | C z z C z z | CG_E CGE | CG_E C z z | %20
 =B, z z B, z z | =B, z z B, z z | B,G_E B,GE | B,G_E B, z z | A z z A z z | A z z A z z | %26
 B, z z B, z z | B, z z z2 z | z2 z A z z | B, z z F2 G | A z A A=B,^C | D3 z2 z |] %32

